X:1
T:Squirrel in the Tree
R:jig
M:6/8
K:G
d2c \
| "G"B2B B2B | B2A GAB | "C"c2c c2B | "Am"c2d efg | "D"f2f f2f | fed cBA |1 "G"GBd "D"e2d | "G"B3 :|
|2 "G"GBd "D"b2a | "G"g3 g2a |: "G"b2b b2b | b2a "C"gfe | "G"d2d d2e | d2c Bdg |
| "D7"f2f f2f | fed cBA |1 "G"GBd "D"e2d | "G"B3 Bdg :|2 "G"GBd "D"bfa | "G"g3 |]
